X:1
T:Red Onion
M:6/8
L:1/8
R:Jig
B:A.S. Bowman – “J.W. Pepper Collection of Five Hundred Reels, Jigs,
B:etc.” (Phila., 1908, No. 160, p. 34)
Z:AK/Fiddler’s Companion
K:G
Bc^c dcd|Bdg bag|fza- ezf-|dze- czd-|
B c^c dcd|Bdg bag|fza- ezf-|def g2z:|
|:{e}dcB cAF|DFA c3|{d}cBA BGD|B,DG B3|
{B}ABc def|gab afd|efg ecA|FGA G2z:|]

